X:592
T:Have You Seen My Valentine?
T:tog air ais an duille glan.
R:air
B:O'Neill's 592
Z:Transcription by John B. Walsh
M:3/4
L:1/8
K:Em
B2 B2 cd|e4 ef|g4 fe|efed B2 B2|
g4 ag|f4 b2|ed B2 de|gf2 He2||
fe|d2 B2 c2|d4 gf|e2 dcBA|B2 G2 EF|
G2 G2 BG|F2 F2 AF|E2 E2 DE|GF2 HE2||
